lib/healthicons/icons/solid/objects/bills.svg

<svg fill="none" height="48" viewBox="0 0 48 48" width="48" xmlns="http://www.w3.org/2000/svg"><g fill="#333"><path clip-rule="evenodd" d="m10.4894 32v4c0 1.1046.8954 2 2 2h30c1.1045 0 2-.8954 2-2v-16c0-1.1046-.8955-2-2-2h-2.4894v3.6687c.108.1608.2315.3111.3692.4487.2785.2786.6093.4996.9732.6503.3637.1507.7534.2282 1.147.2284v10.0039c-.3881.0023-.772.0798-1.1306.2284-.364.1507-.6947.3717-.9733.6503s-.4995.6093-.6503.9732c-.1508.364-.2284.7541-.2284 1.1481h-24.0216c-.0048-.3812-.0822-.7581-.2281-1.1105-.1508-.3639-.3718-.6946-.6504-.9732-.2785-.2786-.6092-.4996-.9732-.6503-.3628-.1503-.7515-.2279-1.1441-.2284v-1.0376z" fill-rule="evenodd"/><path d="m25 20c0 2.2091-1.7909 4-4 4s-4-1.7909-4-4 1.7909-4 4-4 4 1.7909 4 4z"/><path clip-rule="evenodd" d="m6 10c-1.10457 0-2 .8954-2 2v16c0 1.1046.89543 2 2 2h30c1.1046 0 2-.8954 2-2v-16c0-1.1046-.8954-2-2-2zm2.99817 2h24.00293c.0005.3926.0781.7814.2284 1.1441.1507.364.3717.6947.6503.9733s.6093.4996.9732.6503c.3637.1507.7534.2282 1.147.2284v10.004c-.388.0022-.772.0797-1.1306.2283-.364.1507-.6947.3717-.9733.6503-.2785.2786-.4995.6093-.6503.9732-.1507.364-.2283.7541-.2283 1.1481h-24.02169c-.00478-.3812-.08216-.7581-.22813-1.1105-.15076-.3639-.37174-.6946-.65031-.9732-.27858-.2786-.6093-.4996-.97327-.6503-.36276-.1503-.75148-.2279-1.1441-.2284v-10.0376c.39334-.0002.78281-.0778 1.14622-.2284.36398-.1507.69469-.3717.97327-.6503s.49955-.6093.65032-.9732c.15076-.364.22836-.7541.22836-1.1481z" fill-rule="evenodd"/></g></svg>

<svg width="48" height="48" viewBox="0 0 48 48" fill="none" xmlns="http://www.w3.org/2000/svg">
<path fill-rule="evenodd" clip-rule="evenodd" d="M10.4894 32V36C10.4894 37.1046 11.3848 38 12.4894 38H42.4894C43.5939 38 44.4894 37.1046 44.4894 36V20C44.4894 18.8954 43.5939 18 42.4894 18H40V21.6687C40.108 21.8295 40.2315 21.9798 40.3692 22.1174C40.6477 22.396 40.9785 22.617 41.3424 22.7677C41.7061 22.9184 42.0958 22.9959 42.4894 22.9961V33C42.1013 33.0023 41.7174 33.0798 41.3588 33.2284C40.9948 33.3791 40.6641 33.6001 40.3855 33.8787C40.1069 34.1573 39.886 34.488 39.7352 34.8519C39.5844 35.2159 39.5068 35.606 39.5068 36H15.4852C15.4804 35.6188 15.403 35.2419 15.2571 34.8895C15.1063 34.5256 14.8853 34.1949 14.6067 33.9163C14.3282 33.6377 13.9975 33.4167 13.6335 33.266C13.2707 33.1157 12.882 33.0381 12.4894 33.0376V32H10.4894Z" fill="#333333"/>
<path d="M25 20C25 22.2091 23.2091 24 21 24C18.7909 24 17 22.2091 17 20C17 17.7909 18.7909 16 21 16C23.2091 16 25 17.7909 25 20Z" fill="#333333"/>
<path fill-rule="evenodd" clip-rule="evenodd" d="M6 10C4.89543 10 4 10.8954 4 12V28C4 29.1046 4.89543 30 6 30H36C37.1046 30 38 29.1046 38 28V12C38 10.8954 37.1046 10 36 10H6ZM8.99817 12H33.0011C33.0016 12.3926 33.0792 12.7814 33.2295 13.1441C33.3802 13.5081 33.6012 13.8388 33.8798 14.1174C34.1584 14.396 34.4891 14.617 34.853 14.7677C35.2167 14.9184 35.6064 14.9959 36 14.9961V25.0001C35.612 25.0023 35.228 25.0798 34.8694 25.2284C34.5054 25.3791 34.1747 25.6001 33.8961 25.8787C33.6176 26.1573 33.3966 26.488 33.2458 26.8519C33.0951 27.2159 33.0175 27.606 33.0175 28H8.99581C8.99103 27.6188 8.91365 27.2419 8.76768 26.8895C8.61692 26.5256 8.39594 26.1949 8.11737 25.9163C7.83879 25.6377 7.50807 25.4167 7.1441 25.266C6.78134 25.1157 6.39262 25.0381 6 25.0376L6 15C6.39334 14.9998 6.78281 14.9222 7.14622 14.7716C7.5102 14.6209 7.84091 14.3999 8.11949 14.1213C8.39807 13.8427 8.61904 13.512 8.76981 13.1481C8.92057 12.7841 8.99817 12.394 8.99817 12Z" fill="#333333"/>
</svg>
